; generated by PrusaSlicer 2.4.2+win64 on 2022-07-06 at 21:48:20 UTC

; 

; external perimeters extrusion width = 0.45mm
; perimeters extrusion width = 0.45mm
; infill extrusion width = 0.45mm
; solid infill extrusion width = 0.45mm
; top infill extrusion width = 0.40mm
; support material extrusion width = 0.35mm
; first layer extrusion width = 0.42mm

M73 P0 R30
M73 Q0 S30
M201 X1000 Y1000 Z200 E5000 ; sets maximum accelerations, mm/sec^2
M203 X200 Y200 Z12 E120 ; sets maximum feedrates, mm / sec
M204 P1250 R1250 T1250 ; sets acceleration (P, T) and retract acceleration (R), mm/sec^2
M205 X8.00 Y8.00 Z0.40 E4.50 ; sets the jerk limits, mm/sec
M205 S0 T0 ; sets the minimum extruding and travel feed rate, mm/sec
M107
;TYPE:Custom
M862.3 P "MK3S" ; printer model check
M862.1 P0.4 ; nozzle diameter check
M115 U3.10.1 ; tell printer latest fw version
G90 ; use absolute coordinates
M83 ; extruder relative mode
M104 S215 ; set extruder temp
M140 S60 ; set bed temp
M190 S60 ; wait for bed temp
M109 S215 ; wait for extruder temp
G28 W ; home all without mesh bed level
G80 ; mesh bed leveling
G1 Z0.2 F720
G1 Y-3 F1000 ; go outside print area
G92 E0
G1 X60 E9 F1000 ; intro line
G1 X100 E12.5 F1000 ; intro line
G92 E0
M221 S95

; Don't change E values below. Excessive value can damage the printer.
M907 E430 ; set extruder motor current
G21 ; set units to millimeters
G90 ; use absolute coordinates
M83 ; use relative distances for extrusion
M900 K0.05 ; Filament gcode LA 1.5
M900 K30 ; Filament gcode LA 1.0
M107
;LAYER_CHANGE
;Z:0.2
;HEIGHT:0.2
;BEFORE_LAYER_CHANGE
G92 E0.0
;0.2


G1 E-.8 F2100
G1 Z.4 F720
;AFTER_LAYER_CHANGE
;0.2
G1 X113.809 Y72.976 F10800
G1 Z.2 F720
G1 E.8 F2100
M204 S800
;TYPE:Skirt/Brim
;WIDTH:0.42
G1 F1200
G1 X114.794 Y71.884 E.04612
G1 X116.272 Y71.454 E.04827
G1 X133.759 Y71.454 E.54828
G1 X135.177 Y71.846 E.04612
G1 X136.372 Y73.337 E.05991
G1 X138.69 Y80.29 E.22981
G1 X138.831 Y81.161 E.02767
G1 X138.831 Y89.377 E.25759
G1 X138.54 Y90.608 E.03968
G1 X133.905 Y99.88 E.325
G1 X132.92 Y100.972 E.04612
G1 X131.441 Y101.402 E.04827
G1 X123.226 Y101.402 E.25759
G1 X121.809 Y101.01 E.0461
G1 X110.22 Y94.056 E.42375
G1 X109.206 Y92.99 E.04612
G1 X108.883 Y91.695 E.04187
G1 X108.883 Y83.479 E.25759
G1 X109.173 Y82.247 E.03968
G1 X113.782 Y73.03 E.32312
M204 S1000
G1 X114.12 Y73.199 F10800
M204 S800
G1 F1200
G1 X114.146 Y73.145 E.00188
G1 X115.081 Y72.151 E.04278
G1 X116.272 Y71.831 E.03868
G1 X133.759 Y71.831 E.54828
G1 X135.066 Y72.222 E.04278
G1 X136.014 Y73.456 E.04879
G1 X138.332 Y80.41 E.22981
G1 X138.454 Y81.161 E.02388
G1 X138.454 Y89.377 E.25759
G1 X138.203 Y90.44 E.03425
G1 X133.567 Y99.711 E.325
G1 X132.633 Y100.705 E.04278
G1 X131.441 Y101.025 E.03868
G1 X123.226 Y101.025 E.25759
G1 X122.003 Y100.686 E.03979
G1 X110.414 Y93.733 E.42375
G1 X109.495 Y92.725 E.04278
G1 X109.26 Y91.695 E.03313
G1 X109.26 Y83.479 E.25759
G1 X109.511 Y82.416 E.03425
G1 X114.093 Y73.252 E.32124
M204 S1000
; printing object Body1.stl id:0 copy 0
;WIPE_START
G1 F8640
G1 X114.146 Y73.145 E-.02771
G1 X115.081 Y72.151 E-.31505
G1 X116.272 Y71.831 E-.28484
G1 X116.846 Y71.831 E-.1324
;WIPE_END
G1 E-.04 F2100
G1 Z.6 F720
G1 X121.539 Y79.953 F10800
G1 Z.2 F720
G1 E.8 F2100
M204 S800
;TYPE:Support material interface
;WIDTH:0.35
G1 F1200
G1 X121.539 Y79.475 E.01221
G1 X121.786 Y79.475 E.0063
G1 X121.786 Y84.11 E.11837
G1 X122.303 Y84.11 E.01322
G1 X122.303 Y79.475 E.11837
G1 X122.662 Y79.475 E.00916
M204 S1000
;WIPE_START
M73 Q1 S30
G1 F8640
G1 X122.303 Y79.475 E-.08287
G1 X122.303 Y82.407 E-.67713
;WIPE_END
G1 E-.04 F2100
G1 Z.6 F720
G1 X123.96 Y81.241 F10800
M73 P1 R30
G1 Z.2 F720
G1 E.8 F2100
M204 S800
;TYPE:Support material
;WIDTH:0.42
G1 F1200
G1 X124.256 Y81.484 E.01202
G1 X124.308 Y81.436 E.00222
G1 X124.65 Y81.706 E.01365
G1 X124.394 Y82.011 E.01248
G1 X125.055 Y82.651 E.02884
G1 X125.607 Y83.08 E.02192
G1 X126.133 Y83.408 E.01944
G1 X126.705 Y83.686 E.01994
G1 X127.591 Y84.01 E.02958
G1 X127.754 Y83.646 E.01249
G1 X128.146 Y83.835 E.01365
G1 X128.126 Y83.902 E.00222
G1 X128.592 Y84.112 E.01605
G1 X128.569 Y84.211 E.00319
G1 X127.773 Y84.096 E.02522
G1 X127.152 Y83.939 E.02008
G1 X126.573 Y83.729 E.01929
G1 X126.036 Y83.467 E.01874
G1 X125.599 Y83.194 E.01616
G1 X125.063 Y82.777 E.02129
G1 X124.67 Y82.396 E.01717
G1 X124.25 Y81.904 E.02028
G1 X123.785 Y81.221 E.02591
G1 X123.863 Y81.157 E.00319
G1 X123.917 Y81.204 E.00225
M204 S1000
;WIPE_START
G1 F8640
G1 X123.863 Y81.157 E-.01659
G1 X123.785 Y81.221 E-.0235
G1 X124.25 Y81.904 E-.19079
G1 X124.67 Y82.396 E-.14933
G1 X125.063 Y82.777 E-.12643
G1 X125.599 Y83.194 E-.15677
G1 X125.954 Y83.416 E-.09659
;WIPE_END
G1 E-.04 F2100
G1 Z.6 F720
G1 X126.175 Y81.59 F10800
G1 Z.2 F720
G1 E.8 F2100
M204 S800
;TYPE:Support material interface
;WIDTH:0.35
G1 F1200
G1 X126.175 Y81.792 E.00518
G1 X126.446 Y81.792 E.00692
G1 X126.446 Y82.402 E.01556
G1 X126.964 Y82.711 E.0154
G1 X126.964 Y81.792 E.02346
G1 X127.482 Y81.792 E.01322
G1 X127.482 Y82.998 E.03077
G1 X127.89 Y83.217 E.01184
G1 X127.859 Y83.286 E.00193
G1 X127.999 Y83.356 E.004
G1 X127.999 Y81.792 E.03993
G1 X128.493 Y81.792 E.01259
G1 X128.493 Y83.588 E.04584
G1 X128.142 Y83.427 E.00986
M204 S1000
;WIPE_START
G1 F8640
G1 X128.493 Y83.588 E-.08915
G1 X128.493 Y81.792 E-.41456
G1 X127.999 Y81.792 E-.11388
G1 X127.999 Y82.409 E-.14242
;WIPE_END
G1 E-.04 F2100
G1 Z.6 F720
G1 X129.035 Y84.11 F10800
G1 Z.2 F720
G1 E.8 F2100
M204 S800
G1 F1200
G1 X129.035 Y86.428 E.05918
G1 X129.553 Y86.428 E.01322
G1 X129.553 Y84.11 E.05918
G1 X130.071 Y84.11 E.01322
G1 X130.071 Y86.428 E.05918
G1 X130.588 Y86.428 E.01322
G1 X130.588 Y84.11 E.05918
G1 X130.81 Y84.11 E.00567
G1 X130.81 Y84.526 E.01063
M204 S1000
;WIPE_START
G1 F8640
G1 X130.81 Y84.11 E-.09611
G1 X130.588 Y84.11 E-.05124
G1 X130.588 Y86.428 E-.5352
G1 X130.253 Y86.428 E-.07745
;WIPE_END
G1 E-.04 F2100
G1 Z.6 F720
G1 X128.786 Y84.598 F10800
G1 Z.2 F720
G1 E.8 F2100
M204 S800
G1 F1200
G1 X128.517 Y84.577 E.00689
G1 X128.517 Y86.428 E.04725
G1 X127.999 Y86.428 E.01322
G1 X127.999 Y84.506 E.04907
G1 X127.482 Y84.404 E.01348
G1 X127.482 Y86.428 E.05168
G1 X126.964 Y86.428 E.01322
G1 X126.964 Y84.264 E.05526
G1 X126.446 Y84.076 E.01407
G1 X126.446 Y86.428 E.06006
G1 X126.175 Y86.428 E.00693
G1 X126.175 Y84.11 E.05918
G1 X125.928 Y84.11 E.0063
G1 X125.928 Y83.826 E.00726
G1 X125.41 Y83.512 E.01547
G1 X125.41 Y84.11 E.01529
G1 X124.893 Y84.11 E.01322
G1 X124.893 Y83.117 E.02537
G1 X124.375 Y82.62 E.01833
G1 X124.375 Y84.11 E.03806
G1 X123.857 Y84.11 E.01322
G1 X123.857 Y81.987 E.05422
G1 X123.55 Y81.55 E.01363
G1 X123.339 Y81.19 E.01065
G1 X123.339 Y84.11 E.07456
G1 X122.821 Y84.11 E.01322
G1 X122.821 Y79.475 E.11837
G1 X123.339 Y79.475 E.01322
G1 X123.339 Y81.111 E.04179
G1 X123.857 Y80.683 E.01716
G1 X123.857 Y79.475 E.03085
G1 X124.375 Y79.475 E.01322
G1 X124.375 Y81.013 E.03929
G1 X124.893 Y81.427 E.01692
G1 X124.893 Y79.475 E.04986
G1 X125.41 Y79.475 E.01322
G1 X125.41 Y81.709 E.05704
G1 X125.928 Y82.068 E.0161
G1 X125.928 Y79.475 E.06622
G1 X126.175 Y79.475 E.0063
G1 X126.175 Y79.953 E.01222
M204 S1000
;WIPE_START
G1 F8640
G1 X126.175 Y79.475 E-.11046
G1 X125.928 Y79.475 E-.05694
G1 X125.928 Y82.041 E-.5926
;WIPE_END
G1 E-.04 F2100
G1 Z.6 F720
G1 X133.759 Y81.161 F10800
G1 Z.2 F720
G1 E.8 F2100
M204 S800
;TYPE:Support material
;WIDTH:0.42
G1 F1200
G1 X136.077 Y81.161 E.07267
G1 X136.077 Y89.377 E.25759
G1 X133.759 Y89.377 E.07267
G1 X133.759 Y91.695 E.07267
G1 X131.441 Y91.695 E.07267
G1 X131.441 Y98.648 E.21802
G1 X123.226 Y98.648 E.25759
G1 X123.226 Y93.75 E.15356
G1 X126.544 Y93.75 E.10403
G1 X126.544 Y88.377 E.16849
G1 X121.908 Y88.377 E.14535
G1 X121.908 Y86.059 E.07267
G1 X116.534 Y86.059 E.16849
G1 X116.534 Y89.115 E.09581
G1 X118.852 Y89.115 E.07267
G1 X118.852 Y91.433 E.07267
G1 X119.534 Y91.433 E.02139
G1 X119.534 Y91.695 E.00821
G1 X111.637 Y91.695 E.24762
G1 X111.637 Y83.479 E.25759
G1 X113.955 Y83.479 E.07267
G1 X113.955 Y81.161 E.07267
G1 X116.272 Y81.161 E.07267
G1 X116.272 Y74.208 E.21802
G1 X133.759 Y74.208 E.54828
M73 P1 R29
G1 X133.759 Y81.105 E.21625
M204 S1000
;WIPE_START
G1 F8640
G1 X133.759 Y77.813 E-.76
;WIPE_END
G1 E-.04 F2100
G1 Z.6 F720
G1 X121.17 Y84.479 F10800
G1 Z.2 F720
G1 E.8 F2100
M204 S800
G1 F1200
G1 X125.806 Y84.479 E.14535
G1 X125.806 Y86.797 E.07267
G1 X131.179 Y86.797 E.16849
G1 X131.179 Y83.741 E.09581
G1 X128.862 Y83.741 E.07267
G1 X128.862 Y81.423 E.07267
G1 X126.544 Y81.423 E.07267
G1 X126.544 Y79.106 E.07267
G1 X121.17 Y79.106 E.16849
G1 X121.17 Y84.423 E.16671
M204 S1000
;WIPE_START
M73 Q1 S29
G1 F8640
G1 X121.17 Y81.131 E-.76
;WIPE_END
G1 E-.04 F2100
G1 Z.6 F720
G1 X135.588 Y89.207 F10800
G1 Z.2 F720
G1 E.8 F2100
M204 S800
G1 F1200
G1 X135.588 Y81.501 E.24163
G1 X135.169 Y81.501 E.01314
G1 X135.169 Y89.037 E.23631
G1 X134.75 Y89.037 E.01314
G1 X134.75 Y81.501 E.23631
G1 X134.331 Y81.501 E.01314
G1 X134.331 Y89.037 E.23631
G1 X133.912 Y89.037 E.01314
G1 X133.912 Y81.501 E.23631
G1 X133.493 Y81.501 E.01314
G1 X133.493 Y89.037 E.23631
G1 X133.42 Y89.037 E.00231
M73 P2 R29
M73 Q2 S29
G1 X133.42 Y91.355 E.07267
G1 X133.074 Y91.355 E.01083
G1 X133.074 Y74.547 E.527
G1 X132.655 Y74.547 E.01314
G1 X132.655 Y91.355 E.527
G1 X132.236 Y91.355 E.01314
G1 X132.236 Y74.547 E.527
G1 X131.817 Y74.547 E.01314
G1 X131.817 Y91.355 E.527
G1 X131.398 Y91.355 E.01314
G1 X131.398 Y74.547 E.527
G1 X130.98 Y74.547 E.01314
G1 X130.98 Y83.402 E.27763
G1 X130.561 Y83.402 E.01314
G1 X130.561 Y74.547 E.27763
G1 X130.142 Y74.547 E.01314
G1 X130.142 Y83.402 E.27763
G1 X129.723 Y83.402 E.01314
G1 X129.723 Y74.547 E.27763
G1 X129.304 Y74.547 E.01314
G1 X129.304 Y83.402 E.27763
G1 X129.201 Y83.402 E.00322
G1 X129.201 Y81.084 E.07267
G1 X128.885 Y81.084 E.00992
G1 X128.885 Y74.547 E.20495
G1 X128.466 Y74.547 E.01314
G1 X128.466 Y81.084 E.20495
G1 X128.047 Y81.084 E.01314
G1 X128.047 Y74.547 E.20495
G1 X127.628 Y74.547 E.01314
G1 X127.628 Y81.084 E.20495
G1 X127.209 Y81.084 E.01314
G1 X127.209 Y74.547 E.20495
G1 X126.79 Y74.547 E.01314
G1 X126.79 Y78.766 E.13228
G1 X126.371 Y78.766 E.01314
G1 X126.371 Y74.547 E.13228
G1 X125.952 Y74.547 E.01314
G1 X125.952 Y78.766 E.13228
G1 X125.533 Y78.766 E.01314
G1 X125.533 Y74.547 E.13228
G1 X125.114 Y74.547 E.01314
G1 X125.114 Y78.766 E.13228
G1 X124.695 Y78.766 E.01314
G1 X124.695 Y74.547 E.13228
G1 X124.276 Y74.547 E.01314
G1 X124.276 Y78.766 E.13228
G1 X123.857 Y78.766 E.01314
G1 X123.857 Y74.547 E.13228
G1 X123.438 Y74.547 E.01314
G1 X123.438 Y78.766 E.13228
G1 X123.019 Y78.766 E.01314
G1 X123.019 Y74.547 E.13228
G1 X122.6 Y74.547 E.01314
G1 X122.6 Y78.766 E.13228
G1 X122.181 Y78.766 E.01314
G1 X122.181 Y74.547 E.13228
G1 X121.762 Y74.547 E.01314
G1 X121.762 Y78.766 E.13228
G1 X121.343 Y78.766 E.01314
G1 X121.343 Y74.547 E.13228
G1 X120.924 Y74.547 E.01314
G1 X120.924 Y85.72 E.3503
G1 X121.343 Y85.72 E.01314
G1 X121.343 Y84.819 E.02825
G1 X121.762 Y84.819 E.01314
G1 X121.762 Y85.72 E.02825
G1 X122.181 Y85.72 E.01314
G1 X122.181 Y84.819 E.02825
G1 X122.6 Y84.819 E.01314
G1 X122.6 Y88.037 E.10092
G1 X123.019 Y88.037 E.01314
G1 X123.019 Y84.819 E.10092
G1 X123.438 Y84.819 E.01314
G1 X123.438 Y88.037 E.10092
G1 X123.857 Y88.037 E.01314
G1 X123.857 Y84.819 E.10092
G1 X124.276 Y84.819 E.01314
G1 X124.276 Y88.037 E.10092
G1 X124.695 Y88.037 E.01314
G1 X124.695 Y84.819 E.10092
G1 X125.114 Y84.819 E.01314
G1 X125.114 Y88.037 E.10092
G1 X125.533 Y88.037 E.01314
G1 X125.533 Y87.136 E.02825
G1 X125.952 Y87.136 E.01314
G1 X125.952 Y88.037 E.02825
G1 X126.371 Y88.037 E.01314
G1 X126.371 Y87.136 E.02825
G1 X126.79 Y87.136 E.01314
G1 X126.79 Y98.309 E.3503
G1 X127.209 Y98.309 E.01314
G1 X127.209 Y87.136 E.3503
G1 X127.628 Y87.136 E.01314
G1 X127.628 Y98.309 E.3503
G1 X128.047 Y98.309 E.01314
G1 X128.047 Y87.136 E.3503
G1 X128.466 Y87.136 E.01314
G1 X128.466 Y98.309 E.3503
G1 X128.885 Y98.309 E.01314
G1 X128.885 Y87.136 E.3503
G1 X129.304 Y87.136 E.01314
M73 P3 R29
M73 Q3 S29
G1 X129.304 Y98.309 E.3503
G1 X129.723 Y98.309 E.01314
G1 X129.723 Y87.136 E.3503
G1 X130.142 Y87.136 E.01314
G1 X130.142 Y98.309 E.3503
G1 X130.561 Y98.309 E.01314
G1 X130.561 Y87.136 E.3503
G1 X130.98 Y87.136 E.01314
G1 X130.98 Y98.478 E.35562
M204 S1000
G1 X126.371 Y98.478 F10800
M204 S800
G1 F1200
G1 X126.371 Y94.09 E.1376
G1 X125.952 Y94.09 E.01314
G1 X125.952 Y98.309 E.13228
G1 X125.533 Y98.309 E.01314
G1 X125.533 Y94.09 E.13228
G1 X125.114 Y94.09 E.01314
G1 X125.114 Y98.309 E.13228
G1 X124.695 Y98.309 E.01314
G1 X124.695 Y94.09 E.13228
G1 X124.276 Y94.09 E.01314
G1 X124.276 Y98.309 E.13228
G1 X123.857 Y98.309 E.01314
G1 X123.857 Y93.92 E.1376
M204 S1000
;WIPE_START
G1 F8640
G1 X123.857 Y97.212 E-.76
;WIPE_END
G1 E-.04 F2100
G1 Z.6 F720
G1 X120.505 Y85.889 F10800
G1 Z.2 F720
G1 E.8 F2100
M204 S800
G1 F1200
G1 X120.505 Y74.547 E.35562
G1 X120.086 Y74.547 E.01314
G1 X120.086 Y85.72 E.3503
G1 X119.667 Y85.72 E.01314
G1 X119.667 Y74.547 E.3503
G1 X119.248 Y74.547 E.01314
G1 X119.248 Y85.72 E.3503
G1 X118.829 Y85.72 E.01314
G1 X118.829 Y74.547 E.3503
G1 X118.41 Y74.547 E.01314
G1 X118.41 Y85.72 E.3503
G1 X117.991 Y85.72 E.01314
G1 X117.991 Y74.547 E.3503
G1 X117.572 Y74.547 E.01314
G1 X117.572 Y85.72 E.3503
G1 X117.153 Y85.72 E.01314
G1 X117.153 Y74.547 E.3503
G1 X116.734 Y74.547 E.01314
G1 X116.734 Y85.889 E.35562
M204 S1000
;WIPE_START
G1 F8640
G1 X116.734 Y82.598 E-.76
;WIPE_END
G1 E-.04 F2100
G1 Z.6 F720
G1 X118.41 Y91.525 F10800
G1 Z.2 F720
G1 E.8 F2100
M204 S800
G1 F1200
G1 X118.41 Y89.454 E.06493
G1 X117.991 Y89.454 E.01314
G1 X117.991 Y91.355 E.05961
G1 X117.572 Y91.355 E.01314
G1 X117.572 Y89.454 E.05961
G1 X117.153 Y89.454 E.01314
G1 X117.153 Y91.355 E.05961
G1 X116.734 Y91.355 E.01314
G1 X116.734 Y89.284 E.06493
M204 S1000
G1 X116.315 Y91.525 F10800
M204 S800
G1 F1200
G1 X116.315 Y81.501 E.3143
G1 X115.896 Y81.501 E.01314
G1 X115.896 Y91.355 E.30898
G1 X115.477 Y91.355 E.01314
G1 X115.477 Y81.501 E.30898
G1 X115.058 Y81.501 E.01314
G1 X115.058 Y91.355 E.30898
G1 X114.639 Y91.355 E.01314
G1 X114.639 Y81.501 E.30898
G1 X114.294 Y81.501 E.01083
G1 X114.294 Y83.819 E.07267
G1 X114.22 Y83.819 E.00231
G1 X114.22 Y91.355 E.23631
G1 X113.801 Y91.355 E.01314
G1 X113.801 Y83.819 E.23631
G1 X113.382 Y83.819 E.01314
G1 X113.382 Y91.355 E.23631
G1 X112.964 Y91.355 E.01314
G1 X112.964 Y83.819 E.23631
G1 X112.545 Y83.819 E.01314
G1 X112.545 Y91.355 E.23631
G1 X112.126 Y91.355 E.01314
G1 X112.126 Y83.649 E.24163
M204 S1000
;WIPE_START
G1 F8640
G1 X112.126 Y86.94 E-.76
;WIPE_END
G1 E-.04 F2100
M73 Q4 S29
G1 Z.6 F720
G1 X116.903 Y86.844 F10800
G1 Z.2 F720
M73 P4 R29
G1 E.8 F2100
M204 S800
;TYPE:Support material interface
;WIDTH:0.35
G1 F1200
G1 X116.903 Y86.428 E.01063
G1 X117.125 Y86.428 E.00567
G1 X117.125 Y88.746 E.05918
G1 X117.643 Y88.746 E.01322
G1 X117.643 Y86.428 E.05918
G1 X118.161 Y86.428 E.01322
G1 X118.161 Y88.746 E.05918
G1 X118.679 Y88.746 E.01322
G1 X118.679 Y86.428 E.05918
G1 X119.038 Y86.428 E.00916
M204 S1000
;WIPE_START
G1 F8640
G1 X118.679 Y86.428 E-.08287
G1 X118.679 Y88.746 E-.53519
G1 X118.161 Y88.746 E-.11956
G1 X118.161 Y88.649 E-.02237
;WIPE_END
G1 E-.04 F2100
G1 Z.6 F720
G1 X118.928 Y88.258 F10800
G1 Z.2 F720
G1 E.8 F2100
M204 S800
G1 F1200
G1 X119.197 Y88.278 E.00689
G1 X119.197 Y86.428 E.04725
G1 X119.714 Y86.428 E.01322
G1 X119.714 Y88.35 E.04908
G1 X120.232 Y88.452 E.01347
G1 X120.232 Y86.428 E.05168
G1 X120.75 Y86.428 E.01322
G1 X120.75 Y88.591 E.05524
G1 X121.268 Y88.781 E.01408
G1 X121.268 Y86.428 E.06009
G1 X121.539 Y86.428 E.00693
G1 X121.539 Y88.746 E.05918
G1 X121.786 Y88.746 E.0063
G1 X121.786 Y89.029 E.00723
G1 X122.303 Y89.344 E.01548
G1 X122.303 Y88.746 E.01529
G1 X122.821 Y88.746 E.01322
G1 X122.821 Y89.74 E.02539
G1 X123.339 Y90.235 E.01829
G1 X123.339 Y88.746 E.03802
G1 X123.857 Y88.746 E.01322
G1 X123.857 Y90.869 E.05421
G1 X124.164 Y91.307 E.01366
G1 X124.375 Y91.666 E.01064
G1 X124.375 Y88.746 E.07457
G1 X124.734 Y88.746 E.00916
M204 S1000
;WIPE_START
G1 F8640
G1 X124.375 Y88.746 E-.08287
G1 X124.375 Y91.666 E-.67435
G1 X124.369 Y91.656 E-.00277
;WIPE_END
G1 E-.04 F2100
G1 Z.6 F720
G1 X126.175 Y89.224 F10800
G1 Z.2 F720
